svg/300/outlined/radio_button_checked-fill.svg

<svg xmlns="http://www.w3.org/2000/svg" width="48" height="48" viewBox="0 -960 960 960"><path d="M480-310.155q71.076 0 120.461-49.384Q649.845-408.924 649.845-480t-49.384-120.461Q551.076-649.845 480-649.845t-120.461 49.384Q310.155-551.076 310.155-480t49.384 120.461Q408.924-310.155 480-310.155Zm.067 210.154q-78.221 0-147.397-29.92-69.176-29.92-120.989-81.71-51.814-51.791-81.747-120.936-29.933-69.146-29.933-147.366 0-78.836 29.92-148.204 29.92-69.369 81.71-120.682 51.791-51.314 120.936-81.247 69.146-29.933 147.366-29.933 78.836 0 148.204 29.92 69.369 29.92 120.682 81.21 51.314 51.291 81.247 120.629 29.933 69.337 29.933 148.173 0 78.221-29.92 147.397-29.92 69.176-81.21 120.989-51.291 51.814-120.629 81.747-69.337 29.933-148.173 29.933Z"/></svg>

<svg xmlns="http://www.w3.org/2000/svg" width="48" height="48" viewBox="0 -960 960 960"><path d="M480-310.16q71.08 0 120.46-49.38 49.38-49.38 49.38-120.46 0-71.08-49.38-120.46-49.38-49.38-120.46-49.38-71.08 0-120.46 49.38-49.38 49.38-49.38 120.46 0 71.08 49.38 120.46 49.38 49.38 120.46 49.38Zm.07 210.16q-78.22 0-147.4-29.92t-120.99-81.71q-51.81-51.79-81.75-120.94Q100-401.71 100-479.93q0-78.84 29.92-148.21t81.71-120.68q51.79-51.31 120.94-81.25Q401.71-860 479.93-860q78.84 0 148.21 29.92t120.68 81.21q51.31 51.29 81.25 120.63Q860-558.9 860-480.07q0 78.22-29.92 147.4t-81.21 120.99q-51.29 51.81-120.63 81.75Q558.9-100 480.07-100Z"/></svg>
